X:137
T:Perrie Werrie                                                                                     
M:4/4                                                                                               
L:1/8                                                                                               
K:G                                                                                                 
BG GD G2 GA|BG Bc gd ec|BG GD G2 GB|AG AB c2 BA:|                                                   
Bc dB d2 dc|Bd ef gf ed|Bd dB dB gB|AG AB c2 BA|                                                    
Bc dB d2 dc|Bd ef gf ed|(3ccc ac (3BBB gB|AG AB c2 BA |>|
